src/images/amenities/safe.svg

<svg width="19" height="19" viewBox="0 0 19 19" fill="none" xmlns="http://www.w3.org/2000/svg">
<g clip-path="url(#clip0_643:2)">
<path d="M0.414124 0.0535889V18.9464H19V0.0535889H0.414124ZM18.2256 18.1592H1.18853V0.840791H18.2256V18.1592ZM7.77103 13.0424C9.69273 13.0424 11.2559 11.4535 11.2559 9.50002C11.2559 7.54657 9.69273 5.95761 7.77103 5.95761C5.84933 5.95761 4.28618 7.54657 4.28618 9.50002C4.28618 11.4535 5.84933 13.0424 7.77103 13.0424ZM8.15823 6.7763C9.34269 6.94909 10.2797 7.90239 10.4505 9.10642H8.15823V6.7763ZM8.15823 9.89362H10.4505C10.2801 11.0976 9.34269 12.0502 8.15823 12.2237V9.89362ZM7.38382 6.7763V9.10642H5.09157C5.26232 7.90239 6.19936 6.94948 7.38382 6.7763ZM7.38382 9.89362V12.2237C6.19936 12.0502 5.26232 11.0976 5.09157 9.89362H7.38382ZM17.064 15.0104H17.4512V10.2872H17.064V7.92561H17.4512V3.9896H17.064V2.02159H2.35015V16.9784H17.064V15.0104ZM16.2895 3.9896H15.9023V7.92561H16.2895V10.2872H15.9023V15.0104H16.2895V16.1912H3.12456V2.8088H16.2895V3.9896Z" fill="#39412F"/>
</g>
<defs>
<clipPath id="clip0_643:2">
<rect width="18.5859" height="18.8929" fill="white" transform="translate(0.414124 0.0535889)"/>
</clipPath>
</defs>
</svg>

<svg xmlns="http://www.w3.org/2000/svg" viewBox="0 0 19 19"><g clip-path="url(#a)"><path d="M.414.054v18.892H19V.054H.414Zm17.812 18.105H1.189V.841h17.037v17.318ZM7.77 13.042c1.922 0 3.485-1.588 3.485-3.542 0-1.953-1.563-3.542-3.485-3.542S4.286 7.547 4.286 9.5c0 1.954 1.563 3.542 3.485 3.542Zm.387-6.266c1.185.173 2.122 1.126 2.293 2.33H8.157v-2.33Zm0 3.118h2.293c-.17 1.204-1.108 2.156-2.293 2.33v-2.33Zm-.774-3.118v2.33H5.092c.17-1.204 1.107-2.157 2.292-2.33Zm0 3.118v2.33c-1.185-.174-2.122-1.126-2.292-2.33h2.292Zm9.68 5.116h.387v-4.723h-.387V7.926h.387V3.99h-.387V2.022H2.35v14.956h14.714V15.01ZM16.29 3.99h-.388v3.936h.388v2.361h-.388v4.723h.388v1.181H3.125V2.81H16.29v1.18Z" fill="#39412F"/></g><defs><clipPath id="a"><path fill="#fff" transform="translate(.414 .054)" d="M0 0h18.586v18.893H0z"/></clipPath></defs></svg>
